dist/images/svg/sprite/icon-security.svg

<svg width="48" height="48" viewBox="0 0 48 48" fill="none" xmlns="http://www.w3.org/2000/svg">
<path d="M41.3032 21.2014C40.7462 20.3919 40.4846 19.4155 40.5621 18.4359C40.7376 16.256 39.5525 14.1476 37.5319 13.1868C36.6447 12.7638 35.9299 12.0487 35.5073 11.1613C34.5435 9.13121 32.4297 7.95558 30.2584 8.13189C29.2928 8.21007 28.3223 7.96342 27.4965 7.3925C25.6788 6.13573 23.2544 6.13019 21.4292 7.39176C20.6105 7.95761 19.6412 8.2109 18.665 8.13198C16.4851 7.95502 14.377 9.14247 13.4176 11.1613C12.9948 12.0488 12.2796 12.764 11.3922 13.1868C9.40404 14.1315 8.18318 16.2176 8.363 18.4342C8.44211 19.4115 8.17931 20.3931 7.62288 21.1982C6.3638 23.0198 6.36426 25.444 7.62361 27.2655C8.17949 28.0696 8.44211 29.0505 8.363 30.0273C8.18374 32.2389 9.39537 34.328 11.3923 35.2763C12.2796 35.6989 12.9948 36.4137 13.4178 37.3009C14.38 39.3242 16.4938 40.5065 18.6668 40.3312C19.6486 40.2524 20.617 40.5104 21.4324 41.0723C23.2569 42.3296 25.6754 42.3242 27.4925 41.072C28.3063 40.5112 29.2748 40.2521 30.2575 40.3313C32.419 40.5042 34.5382 39.3395 35.5071 37.3008C35.9299 36.4139 36.6447 35.6991 37.5317 35.2763C39.5353 34.3238 40.7393 32.2291 40.5624 30.0265C40.4849 29.0471 40.7464 28.0709 41.3031 27.2614C42.5527 25.4479 42.5627 23.0292 41.3032 21.2014ZM40.543 26.7375C39.866 27.722 39.548 28.9093 39.6422 30.1004C39.7886 31.9214 38.792 33.6551 37.1354 34.4425C36.0568 34.9566 35.1876 35.8258 34.6735 36.9045C33.8745 38.5856 32.1229 39.5548 30.3314 39.411C29.1369 39.3155 27.9599 39.6288 26.9687 40.3118C25.4663 41.3471 23.4644 41.3515 21.9562 40.3121C20.9297 39.6047 19.7426 39.3185 18.5928 39.411C16.7979 39.5555 15.0477 38.579 14.2513 36.9044C13.7369 35.8255 12.8673 34.9563 11.7882 34.4423C10.1379 33.6587 9.1346 31.9308 9.28303 30.1018C9.37931 28.9131 9.05955 27.7193 8.38284 26.7405C7.34401 25.2382 7.33949 23.2316 8.3822 21.723C9.05937 20.7432 9.37931 19.5487 9.28303 18.3596C9.13414 16.5239 10.148 14.7999 11.7884 14.0206C12.8677 13.5063 13.7373 12.6367 14.2514 11.5574C15.043 9.89164 16.7851 8.90552 18.5905 9.05201C19.7852 9.14847 20.9636 8.83573 21.954 8.15118C23.4625 7.10866 25.4693 7.11299 26.9716 8.15182C27.969 8.84136 29.1481 9.14764 30.333 9.05201C32.1296 8.90579 33.8774 9.88075 34.6735 11.5573C35.1874 12.6364 36.0566 13.506 37.1354 14.0205C38.7441 14.7854 39.7927 16.4928 39.642 18.362C39.5466 19.5491 39.8666 20.7435 40.5431 21.7252C41.5844 23.2363 41.576 25.2383 40.543 26.7375Z" fill="white"/>
<path d="M24.4596 10.5737C16.9303 10.5737 10.8048 16.6992 10.8048 24.2284C10.8048 31.7599 16.9303 37.8872 24.4596 37.8872C31.991 37.8872 38.1183 31.7599 38.1183 24.2284C38.1183 16.6993 31.991 10.5737 24.4596 10.5737ZM24.4596 36.9641C17.4393 36.9641 11.7279 31.2509 11.7279 24.2284C11.7279 17.2082 17.4393 11.4968 24.4596 11.4968C31.482 11.4968 37.1952 17.2083 37.1952 24.2284C37.1952 31.251 31.4821 36.9641 24.4596 36.9641Z" fill="white"/>
<path d="M24.46 13.8047C18.7119 13.8047 14.0355 18.4811 14.0355 24.2292C14.0355 29.9788 18.7119 34.6566 24.46 34.6566C30.2097 34.6566 34.8875 29.9788 34.8875 24.2292C34.8875 18.4811 30.2097 13.8047 24.46 13.8047ZM24.46 33.7335C19.2209 33.7335 14.9586 29.4699 14.9586 24.2292C14.9586 18.9901 19.2209 14.7278 24.46 14.7278C29.7007 14.7278 33.9644 18.9901 33.9644 24.2292C33.9644 29.4699 29.7008 33.7335 24.46 33.7335Z" fill="white"/>
<path d="M34.8461 4.84604C35.2285 4.84604 35.5384 4.53608 35.5384 4.15373C35.5384 3.77138 35.2285 3.46143 34.8461 3.46143C34.4638 3.46143 34.1538 3.77138 34.1538 4.15373C34.1538 4.53608 34.4638 4.84604 34.8461 4.84604Z" fill="white"/>
<path d="M13.6154 5.30747C13.9978 5.30747 14.3077 4.99751 14.3077 4.61516C14.3077 4.23281 13.9978 3.92285 13.6154 3.92285C13.2331 3.92285 12.9231 4.23281 12.9231 4.61516C12.9231 4.99751 13.2331 5.30747 13.6154 5.30747Z" fill="white"/>
<path d="M42.2308 35.7689C42.6131 35.7689 42.9231 35.4589 42.9231 35.0766C42.9231 34.6942 42.6131 34.3843 42.2308 34.3843C41.8484 34.3843 41.5385 34.6942 41.5385 35.0766C41.5385 35.4589 41.8484 35.7689 42.2308 35.7689Z" fill="white"/>
<path d="M36.2308 43.1537C36.6131 43.1537 36.9231 42.8437 36.9231 42.4614C36.9231 42.079 36.6131 41.769 36.2308 41.769C35.8484 41.769 35.5385 42.079 35.5385 42.4614C35.5385 42.8437 35.8484 43.1537 36.2308 43.1537Z" fill="white"/>
<path d="M15.923 44.5384C16.3054 44.5384 16.6153 44.2285 16.6153 43.8461C16.6153 43.4638 16.3054 43.1538 15.923 43.1538C15.5407 43.1538 15.2307 43.4638 15.2307 43.8461C15.2307 44.2285 15.5407 44.5384 15.923 44.5384Z" fill="white"/>
<path d="M5.76921 33.4613C6.15156 33.4613 6.46152 33.1513 6.46152 32.769C6.46152 32.3866 6.15156 32.0767 5.76921 32.0767C5.38686 32.0767 5.0769 32.3866 5.0769 32.769C5.0769 33.1513 5.38686 33.4613 5.76921 33.4613Z" fill="white"/>
<path d="M5.30766 14.077C5.69002 14.077 5.99997 13.767 5.99997 13.3847C5.99997 13.0023 5.69002 12.6924 5.30766 12.6924C4.92531 12.6924 4.61536 13.0023 4.61536 13.3847C4.61536 13.767 4.92531 14.077 5.30766 14.077Z" fill="white"/>
<path d="M41.5384 6.23047C40.266 6.23047 39.2307 7.2657 39.2307 8.53816C39.2307 9.81062 40.266 10.8459 41.5384 10.8459C42.8109 10.8459 43.8461 9.81062 43.8461 8.53816C43.8461 7.2657 42.8109 6.23047 41.5384 6.23047ZM41.5384 9.92278C40.7749 9.92278 40.1538 9.30164 40.1538 8.53816C40.1538 7.77468 40.7749 7.15355 41.5384 7.15355C42.3019 7.15355 42.923 7.77468 42.923 8.53816C42.923 9.30164 42.3019 9.92278 41.5384 9.92278ZM8.30766 37.1535C6.27173 37.1535 4.61536 38.8099 4.61536 40.8459C4.61536 42.8818 6.27173 44.5382 8.30766 44.5382C10.3436 44.5382 12 42.8818 12 40.8459C12 38.8099 10.3436 37.1535 8.30766 37.1535ZM8.30766 43.6151C6.78071 43.6151 5.53843 42.3728 5.53843 40.8459C5.53843 39.3189 6.78071 38.0766 8.30766 38.0766C9.83462 38.0766 11.0769 39.3189 11.0769 40.8459C11.0769 42.3728 9.83462 43.6151 8.30766 43.6151ZM28.374 28.6442C28.5333 28.2945 28.6156 27.9147 28.6154 27.5305V20.4689C28.6154 18.9802 27.4042 17.7689 25.9154 17.7689H22.5461C21.0574 17.7689 19.8461 18.9802 19.8461 20.4689V27.5305C19.8461 29.0193 21.0574 30.2305 22.5461 30.2305H25.9154C26.6699 30.2305 27.3526 29.919 27.843 29.4184L28.9814 30.5568C29.0242 30.5996 29.0751 30.6336 29.1311 30.6568C29.187 30.68 29.2471 30.692 29.3077 30.692C29.3683 30.692 29.4283 30.68 29.4843 30.6568C29.5403 30.6336 29.5911 30.5996 29.634 30.5568C29.6768 30.5139 29.7108 30.4631 29.734 30.4071C29.7572 30.3511 29.7692 30.2911 29.7692 30.2305C29.7692 30.1699 29.7572 30.1099 29.734 30.0539C29.7108 29.9979 29.6768 29.947 29.634 29.9042L28.374 28.6442ZM25.9154 29.3074H22.5461C21.5664 29.3074 20.7692 28.5102 20.7692 27.5305V20.4689C20.7692 19.4892 21.5664 18.692 22.5461 18.692H25.9154C26.8951 18.692 27.6923 19.4892 27.6923 20.4689V27.5305C27.6923 27.6639 27.6763 27.7935 27.6483 27.9184L25.7109 25.9811C25.6681 25.9382 25.6172 25.9042 25.5612 25.881C25.5052 25.8578 25.4452 25.8459 25.3846 25.8459C25.324 25.8459 25.264 25.8578 25.208 25.881C25.152 25.9042 25.1011 25.9382 25.0583 25.9811C25.0154 26.0239 24.9814 26.0748 24.9582 26.1308C24.935 26.1868 24.9231 26.2468 24.9231 26.3074C24.9231 26.368 24.935 26.428 24.9582 26.484C24.9814 26.54 25.0154 26.5909 25.0583 26.6337L27.1901 28.7655C26.867 29.0991 26.4153 29.3074 25.9154 29.3074Z" fill="white"/>
</svg>

<svg width="48" height="48" fill="none" xmlns="http://www.w3.org/2000/svg"><path d="M41.303 21.201a4.283 4.283 0 0 1-.74-2.765 5.347 5.347 0 0 0-3.031-5.25 4.285 4.285 0 0 1-2.025-2.025 5.34 5.34 0 0 0-5.249-3.03 4.233 4.233 0 0 1-2.761-.739 5.345 5.345 0 0 0-6.068 0 4.238 4.238 0 0 1-2.764.74 5.343 5.343 0 0 0-5.247 3.03 4.285 4.285 0 0 1-2.026 2.025 5.34 5.34 0 0 0-3.029 5.247 4.268 4.268 0 0 1-.74 2.764 5.345 5.345 0 0 0 0 6.067c.556.805.82 1.785.74 2.762a5.337 5.337 0 0 0 3.03 5.25 4.285 4.285 0 0 1 2.025 2.024 5.35 5.35 0 0 0 5.249 3.03c.982-.079 1.95.18 2.765.741a5.349 5.349 0 0 0 6.06 0 4.25 4.25 0 0 1 2.765-.74 5.347 5.347 0 0 0 5.25-3.031 4.286 4.286 0 0 1 2.025-2.025 5.345 5.345 0 0 0 3.03-5.25 4.283 4.283 0 0 1 .741-2.765 5.35 5.35 0 0 0 0-6.06Zm-.76 5.537a5.21 5.21 0 0 0-.9 3.362 4.422 4.422 0 0 1-2.508 4.343 5.21 5.21 0 0 0-2.462 2.462 4.424 4.424 0 0 1-4.342 2.506 5.172 5.172 0 0 0-3.362.9 4.426 4.426 0 0 1-5.013.001 5.172 5.172 0 0 0-3.363-.901 4.427 4.427 0 0 1-4.342-2.507 5.211 5.211 0 0 0-2.463-2.462 4.414 4.414 0 0 1-2.505-4.34 5.19 5.19 0 0 0-.9-3.361 4.422 4.422 0 0 1 0-5.018c.676-.98.996-2.174.9-3.363a4.417 4.417 0 0 1 2.505-4.34 5.21 5.21 0 0 0 2.463-2.463 4.42 4.42 0 0 1 4.34-2.505 5.158 5.158 0 0 0 3.363-.9 4.422 4.422 0 0 1 5.018 0c.997.69 2.176.996 3.361.9a4.417 4.417 0 0 1 4.34 2.505 5.212 5.212 0 0 0 2.462 2.463 4.424 4.424 0 0 1 2.507 4.342 5.209 5.209 0 0 0 .901 3.363 4.426 4.426 0 0 1 0 5.012Z" fill="#fff"/><path d="M24.46 10.574c-7.53 0-13.655 6.125-13.655 13.654 0 7.532 6.125 13.66 13.655 13.66 7.531 0 13.658-6.128 13.658-13.66 0-7.529-6.127-13.654-13.658-13.654Zm0 26.39c-7.02 0-12.732-5.713-12.732-12.736 0-7.02 5.711-12.731 12.732-12.731 7.022 0 12.735 5.711 12.735 12.731 0 7.023-5.713 12.736-12.735 12.736Z" fill="#fff"/><path d="M24.46 13.805c-5.748 0-10.425 4.676-10.425 10.424 0 5.75 4.677 10.428 10.425 10.428 5.75 0 10.428-4.678 10.428-10.428 0-5.748-4.678-10.424-10.428-10.424Zm0 19.928c-5.24 0-9.501-4.263-9.501-9.504 0-5.239 4.262-9.501 9.501-9.501 5.24 0 9.504 4.262 9.504 9.501 0 5.24-4.263 9.505-9.504 9.505ZM34.846 4.846a.692.692 0 1 0 0-1.385.692.692 0 0 0 0 1.385ZM13.615 5.307a.692.692 0 1 0 0-1.384.692.692 0 0 0 0 1.384ZM42.23 35.769a.692.692 0 1 0 0-1.385.692.692 0 0 0 0 1.385ZM36.23 43.154a.692.692 0 1 0 0-1.385.692.692 0 0 0 0 1.385ZM15.923 44.538a.692.692 0 1 0 0-1.384.692.692 0 0 0 0 1.384ZM5.77 33.461a.692.692 0 1 0 0-1.384.692.692 0 0 0 0 1.384ZM5.308 14.077a.692.692 0 1 0 0-1.385.692.692 0 0 0 0 1.385Z" fill="#fff"/><path d="M41.538 6.23a2.31 2.31 0 0 0-2.307 2.308 2.31 2.31 0 0 0 2.307 2.308 2.31 2.31 0 0 0 2.308-2.308 2.31 2.31 0 0 0-2.308-2.308Zm0 3.693a1.386 1.386 0 0 1-1.384-1.385c0-.763.62-1.384 1.384-1.384.764 0 1.385.62 1.385 1.384 0 .764-.621 1.385-1.385 1.385Zm-33.23 27.23a3.697 3.697 0 0 0-3.693 3.693 3.697 3.697 0 0 0 3.693 3.692A3.697 3.697 0 0 0 12 40.846a3.697 3.697 0 0 0-3.692-3.692Zm0 6.462a2.772 2.772 0 0 1-2.77-2.77 2.772 2.772 0 0 1 2.77-2.768 2.772 2.772 0 0 1 2.769 2.769 2.772 2.772 0 0 1-2.77 2.77Zm20.066-14.97c.16-.35.242-.73.241-1.114v-7.062c0-1.489-1.21-2.7-2.7-2.7h-3.369a2.703 2.703 0 0 0-2.7 2.7v7.061c0 1.49 1.211 2.7 2.7 2.7h3.37c.754 0 1.437-.311 1.927-.812l1.138 1.139a.462.462 0 0 0 .653-.653l-1.26-1.26Zm-2.459.662h-3.369c-.98 0-1.777-.797-1.777-1.776v-7.062c0-.98.797-1.777 1.777-1.777h3.37c.98 0 1.776.797 1.776 1.777v7.061c0 .134-.016.264-.044.388l-1.937-1.937a.46.46 0 0 0-.753.503.46.46 0 0 0 .1.15l2.132 2.131a1.77 1.77 0 0 1-1.275.542Z" fill="#fff"/></svg>
